X: 1
T: Lark In The Strand, The
M: 6/8
L: 1/8
R: jig
K: Ador
|:A3 AGA | BGE G3 | GBA GBd | e2d edB |
A3 AGA | BGE G3 | GBA GAB | dBG BdB :|
| GBd g3 | gba g3 | GBd e2d | e2d edB |
GBd g3 | gba g3 | a2a a3 | e2d edB :|
